X:1
T:Oh Canada
T:for Evan
%%score { ( 1 2 ) | 3 }
L:1/8
M:4/4
K:F
V:1 treble nm="Piano" snm="Pno."
V:2 treble 
V:3 bass 
V:1
 [FA]4 c3 c | [DF]6 G2 | A2 B2 c2 d2 | [EG]6 z2 | [FA]4 =B3 B | c6 d2 | e2 e2 d2 d2 | c6 G>A | %8
 B3 A G2 A>B | c3 B A2 B>c | d2 c2 B2 A2 | G6 G>A | B3 A G2 A>B | c3 B A2 A2 | G2 c2 c=BAB | c8 | %16
 [FA]4 c3 c | F8 | B4 d3 d | [EG]8 | c4 ^c3 c | d2 B2 A2 G2 | F4 [EG]4 | [FA]8 | c4 f3 f | %25
 d2 B2 A2 G2 | c4 E4 | F8 |] %28
V:2
 F4 G4 | x8 | x8 | x8 | x8 | x8 | x8 | x8 | x8 | x8 | x8 | x8 | x8 | x8 | x8 | x8 | F4 G4 | D8 | %18
 x8 | x8 | x8 | x8 | x8 | x8 | x8 | x8 | x8 | C8 |] %28
V:3
 [F,C]4 [E,C]4 | [D,A,]6 [E,C]2 | F,2 G,2 A,2 B,2 | C6 z2 | [F,C]4 [E,^G,]4 | [A,C]6 [_A,C]2 | %6
 [G,C]4 [G,=B,]4 | [C,C]8 | G,3 F, E,2 F,>G, | A,3 G, F,2 G,>A, | B,2 A,2 G,2 F,2 | %11
 E,2 C,>C, C,2 z2 | G,3 F, E,2 F,>G, | A,3 G, F,2 F,2 | [G,C]4 [G,D]4 | [C,C]4 B,4 | %16
 [F,C]4 [E,C]4 | [D,A,]8 | [G,D]4 [B,D]4 | C8 | [F,A,]4 [E,A,]4 | [D,B,]8 | [G,D]4 [G,C]4 | %23
 [F,C]8 | [A,C]4 [F,C]4 | B,4 [D,B,]4 | [E,C]4 [C,B,]4 | [F,A,]8 |] %28

